X: 28333
T: Mug Of Brown Ale, The
R: jig
M: 6/8
K: Adorian
gf|:eAA fAA|egg age|dBA G2A|BAB dBd|
e2A f2A|egg age|dBB gBB|BAG A3:|
efg aba|aba age|ded ~g3|gaf ged|
efg a2a|aba age|dBB gBB|BAG A3:|

